X: 548
T:The Noisy Curlew
M:4/4
L:1/8
R:Reel
Z:Brad Hurley (abc headers Steve Mansfield)
N:Posted to the woodenflute mailing list, July 2002
K:D
DF~F2 DGBG|DFAFEDCE|DF~F2 ABde|fdAG FAEA|
DF~F2 DGBG|DFAFEDCE|DF~F2 ABde|fdAG FDD2||
fgaf g2ag|fgaf gfeg|fgaf gfeg|fdAG FD D2|
fgaf g2ag|fgaf gfeg|fdAFGBdg|fdAG FGEF||
<end>
<start>
